X:3
T:Glenlivet
S:Kerr's
Z:Jack Campin <jc@purr.demon.co.uk> scots-l 2002-2-18
M:C|
L:1/8
K:A Min
B|A2ae cBAc|BAGB gdBG|   A2ae cBAc|BGdB cAA:|\
B|ABcd ecBA|
            GdBd gdBG|[1 ABcd ecBA|BGdB cAA:|\
                      [2 AcBd cedf|edcB cAA|]
